X:1
T:Marche Nuptiale
M:3/8
L:1/8
N:Anim
N:La Bourre 4th edition 1929, page 15
Z:Steve Mansfield www.lesession.co.uk April 2012
K:G
|: A B G | (FD) G A2c | B2 B A B G | (FD) G A2 B |
A3 A B G | (FD) G A2c | B2 G A c G | (FD) G A2 B |
!fermata! G3 | G z !fine!B/c/ ||[M:2/4][L:1/16] "Ritournelle Violon, Vielle ou Cabrette" d2Bc d2Bc | defe d2Bc | defe d2Bc |
d4 BGBd | c2A2 BAGA | B2G2 G2Bc | d2Bc d2Bc |
defe d2Bc | defe d2Bc | !fermata!d4 BGBd | c2A2 BAGA | !fermata!G4!D.C.!:|

